X:8985
T:La Media Vuelta
R:Xota
C:Tradicional
S:Msica Tradicional Asturiana, (C) Tello & Tito. Asturies, 2001.
S:http://pagina.de/MusTradAst <telloytito@asturies.org>
N:Baille fonderamente vaqueiru.
N:Billase en fileres a ritmu ternariu, cantu y acompaa de pandeiru redondu y payel.la.
A:Asturies
B:Musicologa Asturiana - La Cancin Tradicional, Modesto Gonzlez Cobas
Z:La Cancin Tradicional, M.G.C.
M:3/8
L:1/8
Q:3/8=80
W:y breme la puerta rosa y breme la puerta rosala
W:quien te las abre de noche que te las abra de da
K:F
|FFF|GAB|{Bc}BAB|BBA|{Bc}B2 A|B A2|BBB|{Bc}B_AG|FFB|_A2 G|FF_E|F F2-|F3|
